X: 258
T:Stool of Repentance
% Nottingham Music Database
S:KCC p20, via EF
M:6/8
K:G
P:A
d|:"G"g2d B2d|"C"gfe "G"dcB|"C"gee e2d|"C"ege "D7"e2d|
"G"g2d B2d|"C"gfe "G"dcB|"C"c2d e2d|"C"egB "D7"A2G:|
P:B
"G"BGG dGG|"G"BGG dc"g#"B|"Am"cAA eAA|"Am"cAA "D7"edc|
"G"BGG dGG|"G"BGG dcB|"C"c2d e2d|"C"egB "D7"A2G:|<end>
<start>
